brandFactory_export/3.Masa/Datos_3Masa.svg

<?xml version="1.0" encoding="UTF-8"?>
<svg width="24px" height="24px" viewBox="0 0 24 24" version="1.1" xmlns="http://www.w3.org/2000/svg" xmlns:xlink="http://www.w3.org/1999/xlink">
    <title>3.Masa/Datos_3Masa</title>
    <g id="Symbols" stroke="none" stroke-width="1" fill="none" fill-rule="evenodd">
        <g id="3.Masa/Datos_3Masa" fill="#5CB615" fill-rule="nonzero">
            <path d="M6.69579832,4.04705882 C5.23697479,3.62689076 4.34621849,3.05882353 4.11092437,2.4 C4.11092437,2.38991597 4.11092437,2.38991597 4.10084034,2.37647059 C4.33613445,1.7210084 5.22352941,1.1394958 6.67226891,0.719327731 C8.21176471,0.278991597 10.2453782,0.0302521008 12.4033613,0.0302521008 C14.5613445,0.0302521008 16.594958,0.278991597 18.1243697,0.719327731 C19.6537815,1.15966387 20.5176471,1.74117647 20.7092437,2.4302521 C20.7092437,2.4302521 20.6957983,2.44033613 20.6957983,2.45042017 C20.4369748,3.08571429 19.5630252,3.63361345 18.1344538,4.04369748 C16.594958,4.48403361 14.5714286,4.73280674 12.4134454,4.73280674 C10.2588235,4.73613445 8.23529412,4.48739496 6.69579832,4.04705882 L6.69579832,4.04705882 Z M18.4638655,5.08235294 C19.4420168,4.80336134 20.205042,4.45714286 20.7663866,4.02689076 L20.7663866,8.76302521 C20.4840336,9.27058824 19.6537815,9.93613445 18.1378151,10.3798319 C16.6084034,10.8201681 14.5747899,11.0588235 12.4168067,11.0588235 C10.2588235,11.0588235 8.23865546,10.8235294 6.69579832,10.3798319 C5.32436975,9.97983193 4.33613445,9.37815126 4.03361345,8.77647059 L4.03361345,4.00672269 C4.59495798,4.43697479 5.37142857,4.80336134 6.37310924,5.08235294 C8.01344538,5.55630252 10.1613445,5.81512605 12.4168067,5.81512605 C14.6756303,5.81176471 16.8235294,5.55294118 18.4638655,5.08235294 Z M12.4168067,12.1310924 C14.6857143,12.1310924 16.8336134,11.8722689 18.4638655,11.3983193 C19.3848739,11.1394958 20.1714286,10.7731092 20.7663866,10.3327731 L20.7663866,15.112605 C20.4840336,15.6201681 19.6537815,16.2857143 18.1378151,16.7260504 C16.6084034,17.1663866 14.5747899,17.4151261 12.4168067,17.4151261 C10.2588235,17.4151261 8.23529412,17.1663866 6.69579832,16.7260504 C5.32436975,16.3294118 4.33613445,15.7344538 4.03361345,15.1226891 L4.03361345,10.3462185 C4.63193277,10.7663866 5.41512605,11.1327731 6.37310924,11.4016807 C8.01344538,11.8722689 10.1579832,12.1310924 12.4168067,12.1310924 Z M12.4168067,18.4907563 C14.6857143,18.4907563 16.8336134,18.2319328 18.4638655,17.7579832 C19.3848739,17.4991597 20.1714286,17.1226891 20.7663866,16.6823529 L20.7663866,20.9310924 C20.7663866,21.7714286 19.8789916,22.4605042 18.1243697,22.9647059 C16.5848739,23.4084034 14.5512605,23.6537815 12.4033613,23.6537815 C10.2588235,23.6537815 8.22521008,23.405042 6.67226891,22.9647059 C4.9210084,22.4571429 4.0302521,21.7714286 4.0302521,20.9310924 L4.0302521,16.692437 C4.61512605,17.112605 5.41176471,17.4756303 6.3697479,17.7579832 C8.01344538,18.2319328 10.1579832,18.4907563 12.4168067,18.4907563 L12.4168067,18.4907563 Z" id="Datos_3Masa"></path>
        </g>
    </g>
</svg>

<svg width="24" height="24" viewBox="0 0 24 24" xmlns="http://www.w3.org/2000/svg"><path d="M6.696 4.047C5.237 3.627 4.346 3.06 4.11 2.4c0-.01 0-.01-.01-.024C4.336 1.721 5.224 1.14 6.672.72 8.212.28 10.245.03 12.403.03s4.192.249 5.721.69c1.53.44 2.394 1.021 2.585 1.71 0 0-.013.01-.013.02-.259.636-1.133 1.184-2.562 1.594-1.539.44-3.563.689-5.72.689-2.155.003-4.179-.246-5.718-.686zm11.768 1.035c.978-.279 1.741-.625 2.302-1.055v4.736c-.282.508-1.112 1.173-2.628 1.617-1.53.44-3.563.679-5.721.679s-4.178-.235-5.721-.68c-1.372-.4-2.36-1-2.662-1.603v-4.77c.561.431 1.337.797 2.34 1.076 1.64.474 3.787.733 6.043.733 2.259-.003 4.407-.262 6.047-.733zm-6.047 7.05c2.269 0 4.417-.26 6.047-.734.92-.259 1.707-.625 2.302-1.065v4.78c-.282.507-1.112 1.173-2.628 1.613-1.53.44-3.563.69-5.721.69s-4.182-.25-5.721-.69c-1.372-.397-2.36-.992-2.662-1.603v-4.777c.598.42 1.381.787 2.34 1.056 1.64.47 3.784.73 6.043.73zm0 6.359c2.269 0 4.417-.26 6.047-.733.92-.259 1.707-.635 2.302-1.076v4.25c0 .84-.887 1.529-2.642 2.033-1.54.443-3.573.689-5.72.689-2.145 0-4.179-.249-5.732-.69-1.751-.507-2.642-1.193-2.642-2.033v-4.239c.585.42 1.382.784 2.34 1.066 1.643.474 3.788.733 6.047.733z" fill="#5CB615" fill-rule="nonzero"/></svg>
